X:630
T:Kattugglans polska
R:Polska
Z:C-G Magnusson, 2008-10-06
O:Ör, Dalsland
B:Femtio polskor från Wermland och Dal, nr 41
N:Sångpolska, spelas långsamt
M:3/4
L:1/8
Q:100
K:Gm
A2 B2 A>G | (AB) (3ABA ^FG | A2 B>A ^FG | A4 G2 :|
|: G2 G>A B>c | d2 d3 e | d2 c>B A>G | ^F2 G2 z2 :|
(:musicend:)

(:music:)
